icons/icn_lapiz.svg

<svg width="24" xmlns="http://www.w3.org/2000/svg" height="24" id="screenshot-0ef66420-1100-8022-8006-9da392949ba0" viewBox="0 0 24 24" xmlns:xlink="http://www.w3.org/1999/xlink" fill="none" version="1.1"><g id="shape-0ef66420-1100-8022-8006-9da392949ba0"><g class="frame-container-wrapper"><g class="frame-container-blur"><g class="frame-container-shadows"><g fill="none"><g class="fills" id="fills-0ef66420-1100-8022-8006-9da392949ba0"><rect rx="0" ry="0" x="0" y="0" width="24" height="24.000000000000455" transform="matrix(1, 0, 0, 1, 0, 0)" class="frame-background"/></g><g class="frame-children"><g id="shape-0ef66420-1100-8022-8006-9da19a7f1ff0" rx="0" ry="0"><g id="shape-0ef66420-1100-8022-8006-9da0ce7ae0f7" style="opacity: 1;"><g class="fills" id="fills-0ef66420-1100-8022-8006-9da0ce7ae0f7"><path d="M13.958788871765137,2.002197265625C13.770556449890137,1.99755859375,13.590624809265137,2.076416015625,13.465136528015137,2.2166748046875L3.166552782058716,13.562255859375C2.944140672683716,13.80712890625,2.944140672683716,14.180419921875,3.166552782058716,14.4254150390625L9.603564262390137,21.5194091796875C9.725390434265137,21.6541748046875,9.898730278015137,21.730712890625,10.079638481140137,21.730712890625C10.261523246765137,21.730712890625,10.434863090515137,21.6541748046875,10.556689262390137,21.5194091796875L20.853565216064453,10.1734619140625C20.966114044189453,10.0511474609375,21.026905059814453,9.8892822265625,21.023242950439453,9.72265625L20.853565216064453,2.814208984375C20.842578887939453,2.47412109375,20.567432403564453,2.201416015625,20.227100372314453,2.193115234375L18.451709747314453,2.1383056640625C18.423145294189453,2.1326904296875,18.394336700439453,2.1290283203125,18.364795684814453,2.127197265625C18.324268341064453,2.1253662109375,18.282764434814453,2.128173828125,18.242237091064453,2.134521484375ZM14.217333793640137,3.3009033203125L18.068653106689453,3.4180908203125L19.618946075439453,5.1173095703125L19.732471466064453,9.498046875L17.042530059814453,6.533203125C17.015918731689453,6.4935302734375,16.984424591064453,6.4566650390625,16.949512481689453,6.4239501953125C16.944873809814453,6.421142578125,16.940235137939453,6.4188232421875,16.935596466064453,6.41650390625L14.163622856140137,3.3594970703125ZM13.300829887390137,4.30859375L15.650195121765137,6.898681640625L8.786913871765137,14.464599609375L6.435839653015137,11.875ZM16.517627716064453,7.8536376953125L18.873340606689453,10.4493408203125L12.008105278015137,18.013916015625L9.654345512390137,15.4219970703125ZM5.575732231140137,12.8221435546875L7.926074028015137,15.4141845703125L6.861132621765137,16.587890625L4.510058403015137,13.9981689453125ZM8.795214653015137,16.3709716796875L11.146288871765137,18.9630126953125L10.084277153015137,20.133056640625L7.730273246765137,17.5428466796875Z" style="display: inline; stroke-linecap: round; stroke-linejoin: round; fill: rgb(0, 0, 0); fill-opacity: 1;"/></g></g></g></g></g></g></g></g></g></svg>

<svg fill="none" viewBox="0 0 24 24"><g class="frame-container-wrapper"><g class="frame-container-blur"><g class="frame-container-shadows"><g class="fills"><rect width="24" height="24" class="frame-background" rx="0" ry="0"/></g><g class="frame-children"><path fill="#000" d="M13.9588 2.0022a.6412.6412 0 0 0-.4937.2145L3.1666 13.5623a.6417.6417 0 0 0 0 .8631l6.437 7.094a.6422.6422 0 0 0 .476.2113.6427.6427 0 0 0 .477-.2113l10.297-11.346a.6452.6452 0 0 0 .1696-.4507l-.1696-6.9085a.6425.6425 0 0 0-.6265-.621l-1.7754-.0549a.6607.6607 0 0 0-.0869-.0111.617.617 0 0 0-.1226.0073Zm.2585 1.2987 3.8514.1172 1.5502 1.6992.1136 4.3807-2.69-2.9648a.6357.6357 0 0 0-.093-.1092c-.0046-.0029-.0093-.0052-.0139-.0075l-2.772-3.057Zm-.9165 1.0077 2.3494 2.59-6.8633 7.566-2.351-2.5896Zm3.2168 3.545 2.3557 2.5957-6.8652 7.5646-2.3538-2.5919ZM5.5757 12.8221l2.3504 2.592-1.065 1.1738-2.351-2.5897Zm3.2195 3.5489 2.351 2.592-1.062 1.17-2.354-2.5902Z" class="fills"/></g></g></g></g></svg>
